packages/dnb-ui-lib/assets/icons/question_medium.svg

<svg width="24" height="24" viewBox="0 0 24 24" fill="none" xmlns="http://www.w3.org/2000/svg">
<path fill-rule="evenodd" clip-rule="evenodd" d="M6.15332 7.65059C6.15332 4.36697 8.64529 1.875 11.9289 1.875C15.2125 1.875 17.7045 4.36697 17.7045 7.65059C17.7045 10.9342 15.2125 13.4262 11.9289 13.4262C11.5147 13.4262 11.1789 13.762 11.1789 14.1762V18.1742C11.1789 18.5885 11.5147 18.9242 11.9289 18.9242C12.3431 18.9242 12.6789 18.5885 12.6789 18.1742V14.8906C16.4194 14.5321 19.2045 11.5089 19.2045 7.65059C19.2045 3.53854 16.041 0.375 11.9289 0.375C7.81686 0.375 4.65332 3.53854 4.65332 7.65059C4.65332 8.06481 4.98911 8.40059 5.40332 8.40059C5.81753 8.40059 6.15332 8.06481 6.15332 7.65059ZM11.9291 23.9967C12.9161 23.9967 13.5741 23.3387 13.5741 22.3517C13.5741 21.3647 12.9161 20.7067 11.9291 20.7067C10.9421 20.7067 10.2841 21.3647 10.2841 22.3517C10.2841 23.3387 10.9421 23.9967 11.9291 23.9967Z" fill="black"/>
</svg>

<svg width="24" height="24" viewBox="0 0 24 24" fill="none" xmlns="http://www.w3.org/2000/svg"><path fill-rule="evenodd" clip-rule="evenodd" d="M6.153 7.65c0-3.283 2.492-5.775 5.776-5.775s5.775 2.492 5.775 5.776c0 3.283-2.492 5.775-5.775 5.775a.75.75 0 00-.75.75v3.998a.75.75 0 101.5 0v-3.283c3.74-.359 6.525-3.382 6.525-7.24 0-4.112-3.163-7.276-7.275-7.276S4.653 3.539 4.653 7.651a.75.75 0 101.5 0zm5.776 16.347c.987 0 1.645-.658 1.645-1.645s-.658-1.645-1.645-1.645-1.645.658-1.645 1.645.658 1.645 1.645 1.645z" fill="#000"/></svg>
